X: 1
T: Trees - Field town
T: Shepherd's Hey 
M: 2/2
L: 1/8
R: Morris
C: Trad
K: G
r: 32
Z: ABC by Mackin
W: Music formula for morris dance: (1/2)A.(AB)3A
P: A
: B>c| d>cB>c d2 e>f| g>ag>f e2 B>c | d>cB>c d2 e>f| [M:3/2] g>ag>f e4 z:|
P: B
: d | [M:2/2] c2 c>c B>AG>B | d>c (3Bcd c>B (3ABc| B>A G2 A>Bc>d| [M:3/2] e>fg>f e4 z :|
